X: 27167
T: Miss McPherson Grant Of Ballindalloch
R: jig
M: 6/8
K: Gmajor
|:E|D2 G G2 E|FGA ABc|B2 D GFG|A3 D2 E|
D2 d d2 B|cBc A2 c|1 Bcd edc|BAG F2:|2 BAG D2 F|G3 G2||
d|B2 D G2 =F|E^DE C2 E|c2 E ABG|FGE D2 D|
EFG ABc|Bcd e2 g|fed AB^c|d3 d2 d|
e2 G edc|d2 G dBG|EFG A2 G|F2 E D2 D|
E2 c D2 B|c2 A Bcd|BAG DEF|G3- G2||

